build/category/CleanSolid.svg

<svg xmlns="http://www.w3.org/2000/svg" fill="none" viewBox="0 0 24 24" focusable="false"><path d="M0 0H24V24H0z"/><path fill="#74767B" fill-rule="evenodd" d="M16.2981 3.28729C16.8502 2.22144 18.1618 1.80493 19.2276 2.35701C20.2952 2.90996 20.711 4.22457 20.1556 5.29087L17.6427 10.1157C18.215 11.0082 18.3843 12.1373 18.008 13.2078C18.008 13.2078 17.9721 13.309 17.9209 13.4528C17.7789 13.8517 17.3174 14.0307 16.9424 13.834L10.8291 10.6276C10.4217 10.4139 10.3274 9.87174 10.6277 9.52327C10.6565 9.48995 10.685 9.4567 10.7133 9.42355C11.5024 8.50011 12.6723 7.97836 13.8533 8.0188C13.8627 7.99299 13.8739 7.96751 13.8868 7.94253L16.2981 3.28729ZM5.50514 9.47512C6.0252 9.47512 6.4468 9.05352 6.4468 8.53346C6.4468 8.01339 6.0252 7.5918 5.50514 7.5918C4.98507 7.5918 4.56348 8.01339 4.56348 8.53346C4.56348 9.05352 4.98507 9.47512 5.50514 9.47512ZM2.94166 12.3696C3.46173 12.3696 3.88332 11.9481 3.88332 11.428C3.88332 10.9079 3.46173 10.4863 2.94166 10.4863C2.4216 10.4863 2 10.9079 2 11.428C2 11.9481 2.4216 12.3696 2.94166 12.3696ZM7.66243 12.3053C7.99482 12.0991 8.34646 11.8257 8.70237 11.5119C8.92697 11.3138 9.24985 11.2672 9.51503 11.4063L16.6363 15.1414C16.9516 15.3068 17.0932 15.6828 16.9602 16.013C16.825 16.3488 16.689 16.6746 16.5546 16.9809C15.8232 18.6479 14.9714 20.0178 14.4863 20.7443C14.1027 21.3188 13.3881 21.5771 12.7195 21.3513C12.3098 21.2129 11.735 20.9992 11.0532 20.6924C10.7896 20.5738 10.745 20.2219 10.9578 20.0264C11.6047 19.432 12.2728 18.7064 12.7194 17.9218C12.8974 17.6091 12.7867 17.2166 12.4722 17.0451C12.1578 16.8737 11.7586 16.9882 11.5806 17.3008C11.0982 18.1485 10.3796 18.8558 9.62748 19.4807C9.40761 19.6634 9.09662 19.6864 8.85145 19.5394C8.30728 19.213 7.77572 18.8645 7.25434 18.5026C7.04601 18.358 7.10324 18.0314 7.33963 17.9396C7.78956 17.7648 8.24823 17.5164 8.66527 17.1633C8.94021 16.9306 8.97007 16.5255 8.73196 16.2585C8.49386 15.9915 8.07795 15.9637 7.80302 16.1964C7.19255 16.7132 6.39755 16.9596 5.60784 17.0405C5.43284 17.0585 5.2594 17.0004 5.12504 16.8868C4.46071 16.3253 3.98586 15.8538 3.65414 15.4883C3.31834 15.1183 3.30532 14.6401 3.47812 14.2752C3.64355 13.9259 3.98315 13.6565 4.40156 13.5919C5.11694 13.4813 6.26894 13.1698 7.66243 12.3053Z"/></svg>

<svg xmlns="http://www.w3.org/2000/svg" fill="none" viewBox="0 0 24 24" focusable="false"><path fill="#74767B" fill-rule="evenodd" d="M19.22 2.35a2.185 2.185 0 0 0-2.93.93l-2.41 4.66c-.01.02-.02.05-.03.07-1.18-.04-2.35.49-3.14 1.41-.03.03-.06.06-.09.1-.3.35-.2.89.2 1.1l6.12 3.21c.37.2.83.02.98-.38.05-.15.08-.25.08-.25.38-1.07.21-2.2-.36-3.09l2.51-4.82c.56-1.07.14-2.39-.93-2.94M5.5 9.47a.939.939 0 1 0 0-1.88.939.939 0 1 0 0 1.88m-2.56 2.89a.939.939 0 1 0 0-1.88.939.939 0 1 0 0 1.88m4.72-.06c.33-.21.68-.48 1.04-.79.22-.2.54-.25.81-.11l7.12 3.74c.32.16.46.54.33.87l-.41.97c-.73 1.66-1.58 3.03-2.07 3.76-.38.57-1.1.83-1.77.61-.41-.14-.98-.36-1.66-.66-.27-.12-.31-.47-.1-.67.65-.59 1.32-1.32 1.76-2.1.18-.32.07-.71-.24-.88a.655.655 0 0 0-.89.26c-.49.84-1.21 1.55-1.96 2.18-.22.18-.53.2-.77.05-.55-.32-1.08-.67-1.6-1.03-.21-.15-.15-.47.08-.57.45-.17.91-.42 1.33-.77.28-.23.3-.64.07-.91a.68.68 0 0 0-.93-.06c-.61.52-1.41.76-2.2.85a.65.65 0 0 1-.48-.16c-.66-.56-1.14-1.03-1.47-1.4-.34-.37-.35-.84-.18-1.21.17-.35.51-.62.93-.68.71-.11 1.86-.43 3.26-1.29"/></svg>
